icons/op-logo-openproject-16.svg

<svg width="16" height="16" viewBox="0 0 16 16" fill="none" xmlns="http://www.w3.org/2000/svg">
<path d="M13.124 0H11.3388C9.75207 0 8.46281 1.22353 8.46281 2.72941V7.05882H5.32231C5.22314 7.05882 5.14815 7.05882 5.08203 7.05882C4.9498 7.05882 4.82645 7.05882 4.66116 7.05882H2.87603C1.28926 7.05882 0 8.28235 0 9.78824V13.2706C0 14.7765 1.28926 16 2.87603 16H4.66116C6.24793 16 7.53719 14.7765 7.53719 13.2706V9.78824C7.53719 9.47451 7.47108 9.19216 7.3719 8.9098H8.46281V12.0784C8.46281 12.5804 8.89256 12.9569 9.42149 12.9569C9.95041 12.9569 10.3802 12.5804 10.3802 12.0784L10.3802 8.94118H10.8212C10.9534 8.94118 11.2066 8.94118 11.3388 8.94118H13.124C14.7107 8.94118 16 7.71765 16 6.21177V2.72941C16 1.22353 14.7107 0 13.124 0ZM5.61983 13.2706C5.61983 13.7412 5.19008 14.149 4.66116 14.149H2.87603C2.34711 14.149 1.95041 13.7725 1.95041 13.2706V9.78824C1.95041 9.28627 2.34711 8.9098 2.87603 8.9098H4.66116C5.19008 8.9098 5.61983 9.28627 5.61983 9.78824V13.2706ZM14.0496 6.21177C14.0496 6.71373 13.6529 7.0902 13.124 7.0902H11.3388C11.2727 7.0902 11.2066 7.0902 11.1405 7.05882C10.7107 6.96471 10.3802 6.65098 10.3802 6.21177V2.72941C10.3802 2.25882 10.8099 1.85098 11.3388 1.85098H13.124C13.6198 1.85098 14.0496 2.22745 14.0496 2.72941V6.21177Z" fill="#1F2328"/>
</svg>

<svg xmlns="http://www.w3.org/2000/svg" width="16" height="16" viewBox="0 0 16 16"><path d="M13.124 0h-1.785C9.752 0 8.463 1.224 8.463 2.729v4.33H2.876C1.289 7.059 0 8.282 0 9.788v3.483C0 14.777 1.289 16 2.876 16h1.785c1.587 0 2.876-1.223 2.876-2.729V9.788c0-.313-.066-.596-.165-.878h1.091v3.168c0 .502.43.879.958.879.529 0 .959-.377.959-.879V8.941h2.744C14.711 8.941 16 7.718 16 6.212V2.729C16 1.224 14.711 0 13.124 0ZM5.62 13.271c0 .47-.43.878-.959.878H2.876c-.529 0-.926-.376-.926-.878V9.788c0-.502.397-.878.926-.878h1.785c.529 0 .959.376.959.878v3.483Zm8.43-7.059c0 .502-.397.878-.926.878h-1.785c-.066 0-.132 0-.199-.031-.429-.094-.76-.408-.76-.847V2.729c0-.47.43-.878.959-.878h1.785c.496 0 .926.376.926.878v3.483Z"/></svg>
